dist/img/sprites/hCart.svg

<svg width="32" height="32" viewBox="0 0 32 32" fill="none" xmlns="http://www.w3.org/2000/svg">
<g clip-path="url(#clip0_730_5307)">
<path d="M31.5404 8.95002L31.5204 8.92002C31.0304 8.23002 30.2404 7.82002 29.3904 7.82002H5.89037L5.21037 5.50002C4.97037 4.68002 4.34037 4.02002 3.53037 3.75002L1.05037 2.93002C0.630374 2.79002 0.170374 3.02002 0.0303744 3.44002C-0.0396256 3.65002 -0.0196256 3.87002 0.0703744 4.06002C0.170374 4.25002 0.330374 4.40002 0.540374 4.46002L3.01037 5.28002C3.32037 5.38002 3.56037 5.63002 3.65037 5.95002L7.97037 20.8C8.29037 21.91 9.32037 22.68 10.4804 22.68H26.0104C27.1204 22.68 28.1104 21.98 28.4704 20.93L31.8404 11.28C32.1104 10.5 31.9904 9.63002 31.5204 8.94002L31.5404 8.95002ZM9.54037 20.36L6.36037 9.45002H29.3904C29.7104 9.45002 30.0104 9.60002 30.2004 9.87002C30.3904 10.13 30.4304 10.46 30.3304 10.77L26.9604 20.42C26.8204 20.82 26.4404 21.09 26.0204 21.09H10.4904C10.0504 21.09 9.66037 20.8 9.54037 20.38V20.36Z" fill="#4B8125"/>
<path d="M13.0291 25.03C13.7591 25.03 14.3591 25.62 14.3591 26.36C14.3591 27.1 13.7691 27.69 13.0291 27.69C12.2891 27.69 11.6991 27.1 11.6991 26.36C11.6991 25.62 12.2891 25.03 13.0291 25.03ZM13.0291 23.62C11.5191 23.62 10.2891 24.85 10.2891 26.36C10.2891 27.87 11.5191 29.1 13.0291 29.1C14.5391 29.1 15.7691 27.87 15.7691 26.36C15.7691 24.85 14.5391 23.62 13.0291 23.62Z" fill="#4B8125"/>
<path d="M23.9002 25.03C24.6302 25.03 25.2302 25.62 25.2302 26.36C25.2302 27.1 24.6402 27.69 23.9002 27.69C23.1602 27.69 22.5702 27.1 22.5702 26.36C22.5702 25.62 23.1602 25.03 23.9002 25.03ZM23.9002 23.62C22.3902 23.62 21.1602 24.85 21.1602 26.36C21.1602 27.87 22.3902 29.1 23.9002 29.1C25.4102 29.1 26.6402 27.87 26.6402 26.36C26.6402 24.85 25.4102 23.62 23.9002 23.62Z" fill="#4B8125"/>
</g>
<defs>
<clipPath id="clip0_730_5307">
<rect width="32" height="32" fill="white"/>
</clipPath>
</defs>
</svg>

<svg width="32" height="32" viewBox="0 0 32 32" fill="none" xmlns="http://www.w3.org/2000/svg"><g clip-path="url(#clip0_730_5307)" fill="#4B8125"><path d="M31.54 8.95l-.02-.03c-.49-.69-1.28-1.1-2.13-1.1H5.89L5.21 5.5c-.24-.82-.87-1.48-1.68-1.75l-2.48-.82a.81.81 0 00-.98 1.13c.1.19.26.34.47.4l2.47.82c.31.1.55.35.64.67L7.97 20.8a2.616 2.616 0 002.51 1.88h15.53c1.11 0 2.1-.7 2.46-1.75l3.37-9.65c.27-.78.15-1.65-.32-2.34l.02.01zm-22 11.41L6.36 9.45h23.03c.32 0 .62.15.81.42.19.26.23.59.13.9l-3.37 9.65c-.14.4-.52.67-.94.67H10.49c-.44 0-.83-.29-.95-.71v-.02zm3.49 4.67c.73 0 1.33.59 1.33 1.33 0 .74-.59 1.33-1.33 1.33-.74 0-1.33-.59-1.33-1.33 0-.74.59-1.33 1.33-1.33zm0-1.41c-1.51 0-2.74 1.23-2.74 2.74 0 1.51 1.23 2.74 2.74 2.74 1.51 0 2.74-1.23 2.74-2.74 0-1.51-1.23-2.74-2.74-2.74zm10.87 1.41c.73 0 1.33.59 1.33 1.33 0 .74-.59 1.33-1.33 1.33-.74 0-1.33-.59-1.33-1.33 0-.74.59-1.33 1.33-1.33zm0-1.41c-1.51 0-2.74 1.23-2.74 2.74 0 1.51 1.23 2.74 2.74 2.74 1.51 0 2.74-1.23 2.74-2.74 0-1.51-1.23-2.74-2.74-2.74z"/></g><defs><clipPath id="clip0_730_5307"><path fill="#fff" d="M0 0h32v32H0z"/></clipPath></defs></svg>
